packages/calcite-ui-icons/icons/link-chart-sync-selection-32.svg

<?xml version="1.0" encoding="UTF-8"?><svg id="icons" xmlns="http://www.w3.org/2000/svg" viewBox="0 0 32 32"><defs><style>.cls-1{fill:none;}</style></defs><path d="M25.5,3c-1.75848,0-3.20422,1.30835-3.44946,3h-12.10107c-.24524-1.69165-1.69098-3-3.44946-3-1.92969,0-3.5,1.57031-3.5,3.5,0,1.75848,1.30835,3.20422,3,3.44946v12.10107c-1.69165.24524-3,1.69098-3,3.44946,0,1.92969,1.57031,3.5,3.5,3.5s3.49-1.57031,3.49-3.5c0-.78455-.25892-1.50195-.69667-2.0863l14.12036-14.12036c.58435.43774,1.30176.70667,2.0863.70667,1.92969,0,3.49-1.57031,3.49-3.5s-1.56031-3.5-3.49-3.5ZM7,22.05054v-12.10107c1.52692-.22137,2.72809-1.42255,2.94946-2.94946h12.10107c.08557.59003.3139,1.12946.65613,1.5863l-14.12036,14.12036c-.45685-.34222-.99628-.57056-1.5863-.65613ZM25.5,9c-1.37891,0-2.5-1.12109-2.5-2.5s1.12109-2.5,2.5-2.5,2.5,1.12109,2.5,2.5-1.12109,2.5-2.5,2.5ZM30,19v4h-4v-1h2.34399c-.76099-1.64691-2.41431-2.79999-4.34399-2.79999-2.64612,0-4.79999,2.15308-4.79999,4.79999h-1c0-3.19806,2.6012-5.79999,5.79999-5.79999,2.13232,0,3.9939,1.15875,5,2.87756v-2.07758h1ZM28.79999,24h1c0,3.19806-2.6012,5.79999-5.79999,5.79999-2.13232,0-3.9939-1.15875-5-2.87756v2.07758h-1v-4h4v1h-2.34399c.76099,1.64691,2.41431,2.79999,4.34399,2.79999,2.64612,0,4.79999-2.15314,4.79999-4.79999Z"/><rect class="cls-1" width="32" height="32"/></svg>

<svg xmlns="http://www.w3.org/2000/svg" viewBox="0 0 32 32"><path d="M25.5 3c-1.758 0-3.204 1.308-3.45 3H9.95C9.703 4.308 8.257 3 6.5 3 4.57 3 3 4.57 3 6.5c0 1.758 1.308 3.204 3 3.45v12.1c-1.692.246-3 1.692-3 3.45C3 27.43 4.57 29 6.5 29a3.496 3.496 0 0 0 2.793-5.586l14.12-14.12A3.467 3.467 0 0 0 25.5 10c1.93 0 3.49-1.57 3.49-3.5S27.43 3 25.5 3zM7 22.05V9.95A3.487 3.487 0 0 0 9.95 7h12.1c.086.59.314 1.13.657 1.586l-14.12 14.12A3.464 3.464 0 0 0 7 22.052zM25.5 9C24.121 9 23 7.879 23 6.5S24.121 4 25.5 4 28 5.121 28 6.5 26.879 9 25.5 9zM30 19v4h-4v-1h2.344c-.761-1.647-2.414-2.8-4.344-2.8a4.806 4.806 0 0 0-4.8 4.8h-1c0-3.198 2.601-5.8 5.8-5.8a5.791 5.791 0 0 1 5 2.878V19h1zm-1.2 5h1c0 3.198-2.601 5.8-5.8 5.8a5.791 5.791 0 0 1-5-2.878V29h-1v-4h4v1h-2.344c.761 1.647 2.414 2.8 4.344 2.8 2.646 0 4.8-2.153 4.8-4.8z"/><path fill="none" d="M0 0h32v32H0z"/></svg>
